X:178
T:Paddy O'Rafferty
C:anon.
O:Ireland
R:Double jig
B:O'Neills's 1001
Z:Transcribed by Frank Nordberg http://www.musicaviva.com
M:6/8
L:1/8
K:G
GAB DED|DcB AGE|GAB DED|GAG GED|GAB DED|DcB ABc|dcB AGE|GAG GED::DBB DAA|
DBB AGE|DBB DAA|GAG GED|DBB DAA|DBB ABc|dcB AGE|GAG GED::dcd efg|ded dBG|dcd efg|
GAG GED|dcd efg|gfe dcB|GAG GED::BDD EDD|BGB AGE|BDD EDD|GAG GED|BDD EDD|
BGB ABc|dcB AGE|GAG GED::B2G A2G|B2G AGE|B2G AGE|GAG GED|BGG AGG|BGG ABc|dcB AGE|GAG GED:|


